;FLAVOR:Marlin
;TIME:5339
;Filament used: 4.53679m
;Layer height: 0.2
;MINX:74
;MINY:79
;MINZ:0.2
;MAXX:161
;MAXY:156
;MAXZ:5
;Generated with Cura_SteamEngine 4.8.0
M140 S50
M105
M190 S50
M104 S200
M105
M109 S200
M82 ;absolute extrusion mode
; Ender 3 Custom Start G-code
G92 E0 ; Reset Extruder
G28 ; Home all axes
G1 Z2.0 F3000 ; Move Z Axis up little to prevent scratching of Heat Bed
G1 X0.1 Y20 Z0.3 F5000.0 ; Move to start position
G1 X0.1 Y200.0 Z0.3 F1500.0 E15 ; Draw the first line
G1 X0.4 Y200.0 Z0.3 F5000.0 ; Move to side a little
G1 X0.4 Y20 Z0.3 F1500.0 E30 ; Draw the second line
G92 E0 ; Reset Extruder
G1 Z2.0 F3000 ; Move Z Axis up little to prevent scratching of Heat Bed
G1 X5 Y20 Z0.3 F5000.0 ; Move over to prevent blob squish
G92 E0
G92 E0
G1 F2700 E-5
;LAYER_COUNT:25
;LAYER:0
M107
G0 F6000 X77.198 Y82.264 Z0.2
;TYPE:SKIRT
G1 F2700 E0
G1 F1200 X77.886 Y81.627 E0.03119
G1 X78.626 Y81.051 E0.06237
G1 X79.412 Y80.539 E0.09357
G1 X80.239 Y80.097 E0.12476
G1 X81.101 Y79.727 E0.15596
G1 X81.991 Y79.431 E0.18716
G1 X82.903 Y79.213 E0.21835
G1 X83.83 Y79.072 E0.24953
G1 X84.701 Y79.013 E0.27857
G1 X85.022 Y79.004 E0.28925
G1 X85.33 Y79 E0.29949
G1 X149.293 Y79 E2.42691
G1 X150.149 Y79.011 E2.45539
G1 X151.085 Y79.065 E2.48657
G1 X152.013 Y79.197 E2.51774
G1 X152.927 Y79.409 E2.54895
G1 X153.819 Y79.698 E2.58014
G1 X154.684 Y80.061 E2.61134
G1 X155.514 Y80.497 E2.64252
G1 X156.305 Y81.002 E2.67373
G1 X157.049 Y81.573 E2.70493
G1 X157.742 Y82.205 E2.73612
G1 X158.379 Y82.893 E2.76731
G1 X158.954 Y83.634 E2.7985
G1 X159.465 Y84.42 E2.82969
G1 X159.907 Y85.248 E2.8609
G1 X160.276 Y86.11 E2.89209
G1 X160.571 Y87 E2.92327
G1 X160.789 Y87.912 E2.95446
G1 X160.929 Y88.84 E2.98568
G1 X160.987 Y89.701 E3.01438
G1 X160.996 Y90.021 E3.02503
G1 X161 Y90.33 E3.0353
G1 X160.999 Y144.4 E4.83368
G1 X160.99 Y145.127 E4.85786
G1 X160.939 Y146.064 E4.88907
G1 X160.807 Y146.992 E4.92025
G1 X160.598 Y147.906 E4.95143
G1 X160.311 Y148.799 E4.98263
G1 X159.949 Y149.665 E5.01385
G1 X159.515 Y150.496 E5.04503
G1 X159.011 Y151.287 E5.07623
G1 X158.442 Y152.032 E5.10741
G1 X157.811 Y152.727 E5.13863
G1 X157.124 Y153.365 E5.16981
G1 X156.385 Y153.942 E5.20099
G1 X155.599 Y154.454 E5.23219
G1 X154.773 Y154.897 E5.26337
G1 X153.911 Y155.269 E5.2946
G1 X153.022 Y155.565 E5.32576
G1 X152.11 Y155.785 E5.35696
G1 X151.183 Y155.926 E5.38815
G1 X150.299 Y155.987 E5.41762
G1 X149.978 Y155.996 E5.4283
G1 X149.67 Y156 E5.43855
G1 X85.565 Y155.999 E7.57069
G1 X84.867 Y155.99 E7.59391
G1 X83.931 Y155.938 E7.62509
G1 X83.002 Y155.806 E7.65629
G1 X82.088 Y155.596 E7.68749
G1 X81.195 Y155.309 E7.71868
G1 X80.33 Y154.946 E7.74988
G1 X79.499 Y154.512 E7.78107
G1 X78.708 Y154.008 E7.81226
G1 X77.963 Y153.438 E7.84346
G1 X77.269 Y152.807 E7.87466
G1 X76.632 Y152.12 E7.90582
G1 X76.055 Y151.38 E7.93703
G1 X75.543 Y150.594 E7.96823
G1 X75.1 Y149.767 E7.99943
G1 X74.729 Y148.906 E8.03061
G1 X74.433 Y148.016 E8.06181
G1 X74.214 Y147.104 E8.09301
G1 X74.073 Y146.177 E8.12419
G1 X74.013 Y145.288 E8.15383
G1 X74.004 Y144.955 E8.16491
G1 X74 Y144.658 E8.17479
G1 X74.001 Y90.525 E9.97526
G1 X74.01 Y89.86 E9.99738
G1 X74.063 Y88.924 E10.02856
G1 X74.195 Y87.995 E10.05977
G1 X74.406 Y87.081 E10.09097
G1 X74.694 Y86.189 E10.12214
G1 X75.057 Y85.324 E10.15334
G1 X75.492 Y84.493 E10.18454
G1 X75.996 Y83.703 E10.21571
G1 X76.566 Y82.958 E10.24691
G1 X77.198 Y82.264 E10.27813
G0 F6000 X77.589 Y82.439
G1 F1200 X78.274 Y81.823 E10.30877
G1 X79.01 Y81.27 E10.33939
G1 X79.791 Y80.782 E10.37002
G1 X80.611 Y80.364 E10.40063
G1 X81.465 Y80.019 E10.43126
G1 X82.345 Y79.749 E10.46188
G1 X83.245 Y79.557 E10.49249
G1 X84.159 Y79.443 E10.52312
G1 X84.712 Y79.413 E10.54154
G1 X85.033 Y79.404 E10.55222
G1 X85.33 Y79.4 E10.5621
G1 X149.293 Y79.4 E12.68952
G1 X150.143 Y79.411 E12.71779
G1 X151.062 Y79.464 E12.74841
G1 X151.973 Y79.597 E12.77903
G1 X152.869 Y79.808 E12.80965
G1 X153.743 Y80.096 E12.84026
G1 X154.59 Y80.459 E12.8709
G1 X155.401 Y80.894 E12.90151
G1 X156.171 Y81.398 E12.93212
G1 X156.895 Y81.967 E12.96275
G1 X157.567 Y82.597 E12.99339
G1 X158.182 Y83.282 E13.02401
G1 X158.735 Y84.018 E13.05462
G1 X159.222 Y84.799 E13.08524
G1 X159.639 Y85.62 E13.11586
G1 X159.984 Y86.474 E13.1465
G1 X160.253 Y87.354 E13.1771
G1 X160.445 Y88.255 E13.20774
G1 X160.558 Y89.168 E13.23834
G1 X160.587 Y89.712 E13.25646
G1 X160.596 Y90.032 E13.26711
G1 X160.6 Y90.33 E13.27702
G1 X160.599 Y144.395 E15.07523
G1 X160.59 Y145.122 E15.09941
G1 X160.539 Y146.041 E15.13003
G1 X160.408 Y146.953 E15.16067
G1 X160.198 Y147.849 E15.19128
G1 X159.912 Y148.724 E15.2219
G1 X159.551 Y149.571 E15.25252
G1 X159.117 Y150.383 E15.28314
G1 X158.615 Y151.155 E15.31377
G1 X158.047 Y151.88 E15.3444
G1 X157.419 Y152.553 E15.37502
G1 X156.735 Y153.169 E15.40564
G1 X156 Y153.723 E15.43625
G1 X155.22 Y154.212 E15.46687
G1 X154.4 Y154.631 E15.4975
G1 X153.547 Y154.977 E15.52811
G1 X152.667 Y155.248 E15.55874
G1 X151.767 Y155.441 E15.58935
G1 X150.853 Y155.556 E15.61999
G1 X150.288 Y155.587 E15.63881
G1 X149.967 Y155.596 E15.64949
G1 X149.67 Y155.6 E15.65937
G1 X85.57 Y155.599 E17.79135
G1 X84.872 Y155.59 E17.81456
G1 X83.953 Y155.538 E17.84518
G1 X83.042 Y155.407 E17.87579
G1 X82.146 Y155.197 E17.9064
G1 X81.271 Y154.91 E17.93703
G1 X80.424 Y154.548 E17.96766
G1 X79.612 Y154.114 E17.99829
G1 X78.841 Y153.612 E18.02889
G1 X78.116 Y153.044 E18.05952
G1 X77.443 Y152.415 E18.09016
G1 X76.828 Y151.731 E18.12075
G1 X76.274 Y150.996 E18.15136
G1 X75.786 Y150.215 E18.18199
G1 X75.367 Y149.395 E18.21262
G1 X75.021 Y148.542 E18.24324
G1 X74.751 Y147.662 E18.27385
G1 X74.558 Y146.761 E18.3045
G1 X74.444 Y145.848 E18.3351
G1 X74.413 Y145.277 E18.35412
G1 X74.404 Y144.944 E18.3652
G1 X74.4 Y144.658 E18.37471
G1 X74.401 Y90.531 E20.17499
G1 X74.41 Y89.866 E20.19711
G1 X74.462 Y88.946 E20.22775
G1 X74.594 Y88.035 E20.25837
G1 X74.805 Y87.139 E20.28899
G1 X75.092 Y86.264 E20.31961
G1 X75.455 Y85.418 E20.35023
G1 X75.889 Y84.606 E20.38086
G1 X76.392 Y83.835 E20.41147
G1 X76.961 Y83.111 E20.4421
G1 X77.589 Y82.439 E20.47269
G0 F6000 X77.981 Y82.617
G1 F1200 X78.662 Y82.024 E20.50273
G1 X79.394 Y81.494 E20.53279
G1 X80.169 Y81.031 E20.56281
G1 X80.982 Y80.638 E20.59285
G1 X81.827 Y80.318 E20.6229
G1 X82.696 Y80.075 E20.65291
G1 X83.584 Y79.909 E20.68296
G1 X84.723 Y79.813 E20.72097
G1 X85.044 Y79.804 E20.73166
G1 X85.33 Y79.8 E20.74117
G1 X149.293 Y79.8 E22.86859
G1 X150.137 Y79.811 E22.89666
G1 X151.039 Y79.864 E22.92671
G1 X151.932 Y79.996 E22.95674
G1 X152.81 Y80.207 E22.98677
G1 X153.666 Y80.495 E23.01681
G1 X154.493 Y80.857 E23.04684
G1 X155.285 Y81.292 E23.07689
G1 X156.036 Y81.794 E23.10693
G1 X156.739 Y82.361 E23.13697
G1 X157.389 Y82.988 E23.16701
G1 X157.981 Y83.67 E23.19705
G1 X158.511 Y84.401 E23.22708
G1 X158.973 Y85.177 E23.25712
G1 X159.366 Y85.99 E23.28715
G1 X159.684 Y86.835 E23.31718
G1 X159.927 Y87.705 E23.34722
G1 X160.092 Y88.593 E23.37727
G1 X160.187 Y89.723 E23.41498
G1 X160.196 Y90.043 E23.42563
G1 X160.2 Y90.33 E23.43518
G1 X160.199 Y144.39 E25.23322
G1 X160.19 Y145.117 E25.2574
G1 X160.139 Y146.019 E25.28745
G1 X160.008 Y146.913 E25.3175
G1 X159.799 Y147.791 E25.34752
G1 X159.513 Y148.648 E25.37757
G1 X159.152 Y149.476 E25.40761
G1 X158.72 Y150.268 E25.43762
G1 X158.219 Y151.02 E25.46767
G1 X157.653 Y151.724 E25.49772
G1 X157.028 Y152.375 E25.52773
G1 X156.347 Y152.969 E25.55779
G1 X155.616 Y153.5 E25.58784
G1 X154.842 Y153.964 E25.61785
G1 X154.029 Y154.358 E25.6479
G1 X153.185 Y154.678 E25.67792
G1 X152.315 Y154.923 E25.70799
G1 X151.428 Y155.089 E25.738
G1 X150.277 Y155.187 E25.77642
G1 X149.956 Y155.196 E25.7871
G1 X149.67 Y155.2 E25.79661
G1 X85.575 Y155.199 E27.92842
G1 X84.877 Y155.19 E27.95164
G1 X83.976 Y155.139 E27.98166
G1 X83.082 Y155.007 E28.01171
G1 X82.204 Y154.798 E28.04173
G1 X81.347 Y154.511 E28.07179
G1 X80.52 Y154.15 E28.1018
G1 X79.727 Y153.717 E28.13185
G1 X78.976 Y153.216 E28.16188
G1 X78.272 Y152.65 E28.19192
G1 X77.621 Y152.024 E28.22196
G1 X77.028 Y151.343 E28.252
G1 X76.498 Y150.612 E28.28203
G1 X76.034 Y149.837 E28.31207
G1 X75.64 Y149.024 E28.34212
G1 X75.32 Y148.18 E28.37214
G1 X75.076 Y147.31 E28.40219
G1 X74.91 Y146.422 E28.43224
G1 X74.813 Y145.267 E28.47079
G1 X74.804 Y144.934 E28.48187
G1 X74.8 Y144.658 E28.49105
G1 X74.801 Y90.536 E30.29116
G1 X74.81 Y89.871 E30.31328
G1 X74.862 Y88.969 E30.34333
G1 X74.994 Y88.076 E30.37335
G1 X75.204 Y87.198 E30.40338
G1 X75.491 Y86.341 E30.43344
G1 X75.853 Y85.514 E30.46346
G1 X76.286 Y84.722 E30.49349
G1 X76.788 Y83.971 E30.52353
G1 X77.355 Y83.267 E30.5536
G1 X77.981 Y82.617 E30.58361
G1 F2700 E25.58361
G0 F6000 X111.475 Y99.606
G0 X118.115 Y99.653
G0 X118.115 Y102.847
G0 X142.915 Y115.555
G1 F2700 E30.58361
G1 F1200 X142.676 Y115.851 E30.59626
G1 X142.621 Y115.933 E30.59955
G1 X142.447 Y116.241 E30.61131
G1 X142.408 Y116.324 E30.61436
G1 X142.27 Y116.689 E30.62734
G1 X142.241 Y116.792 E30.6309
G1 X142.168 Y117.186 E30.64423
G1 X142.158 Y117.295 E30.64787
G1 X142.158 Y117.66 E30.66001
G1 X142.164 Y117.748 E30.66294
G1 X142.219 Y118.121 E30.67548
G1 X142.246 Y118.23 E30.67922
G1 X142.386 Y118.632 E30.69338
G1 X142.433 Y118.734 E30.69711
G1 X142.605 Y119.033 E30.70858
G1 X142.641 Y119.089 E30.7108
G1 X142.885 Y119.422 E30.72453
G1 X142.994 Y119.535 E30.72975
G1 X143.305 Y119.784 E30.743
G1 X143.36 Y119.824 E30.74526
G1 X143.673 Y120.021 E30.75757
G1 X143.773 Y120.071 E30.76128
G1 X144.156 Y120.222 E30.77498
G1 X144.262 Y120.253 E30.77865
G1 X144.594 Y120.317 E30.7899
G1 X144.669 Y120.327 E30.79241
G1 X145.011 Y120.349 E30.80381
G1 X145.114 Y120.347 E30.80724
G1 X145.494 Y120.306 E30.81995
G1 X145.589 Y120.287 E30.82317
G1 X145.981 Y120.179 E30.8367
G1 X146.099 Y120.133 E30.84091
G1 X146.516 Y119.916 E30.85654
G1 X146.621 Y119.847 E30.86072
G1 X146.894 Y119.622 E30.87249
G1 X146.941 Y119.578 E30.87463
G1 X147.204 Y119.309 E30.88714
G1 X147.284 Y119.208 E30.89143
G1 X147.494 Y118.872 E30.90461
G1 X147.533 Y118.799 E30.90736
G1 X147.668 Y118.497 E30.91836
G1 X147.7 Y118.406 E30.92157
G1 X147.799 Y118.034 E30.93437
G1 X147.817 Y117.929 E30.93792
G1 X147.85 Y117.525 E30.9514
G1 X147.849 Y117.412 E30.95516
G1 X147.807 Y117.023 E30.96817
G1 X147.791 Y116.937 E30.97108
G1 X147.703 Y116.597 E30.98276
G1 X147.668 Y116.498 E30.98625
G1 X147.505 Y116.141 E30.99931
G1 X147.451 Y116.047 E31.00291
G1 X147.24 Y115.744 E31.01519
G1 X147.186 Y115.677 E31.01805
G1 X146.964 Y115.44 E31.02886
G1 X146.905 Y115.385 E31.03154
G1 X146.589 Y115.127 E31.04511
G1 X146.467 Y115.05 E31.0499
G1 X146.065 Y114.859 E31.06471
G1 X145.98 Y114.826 E31.06774
G1 X145.626 Y114.72 E31.08003
G1 X145.523 Y114.699 E31.08353
G1 X145.142 Y114.655 E31.09628
G1 X145.043 Y114.652 E31.09958
G1 X144.685 Y114.67 E31.1115
G1 X144.593 Y114.682 E31.11459
G1 X144.252 Y114.753 E31.12617
G1 X144.162 Y114.779 E31.12929
G1 X143.781 Y114.923 E31.14283
G1 X143.672 Y114.977 E31.14688
G1 X143.331 Y115.193 E31.1603
G1 X143.261 Y115.245 E31.16321
G1 X142.991 Y115.477 E31.17505
G1 X142.915 Y115.555 E31.17867
G0 F6000 X143.226 Y115.806
G1 F1200 X142.987 Y116.102 E31.19132
G1 X142.969 Y116.13 E31.19243
G1 X142.795 Y116.438 E31.20419
G1 X142.782 Y116.465 E31.20519
G1 X142.644 Y116.83 E31.21817
G1 X142.634 Y116.865 E31.21938
G1 X142.561 Y117.259 E31.23271
G1 X142.558 Y117.295 E31.23391
G1 X142.558 Y117.66 E31.24605
G1 X142.56 Y117.689 E31.24702
G1 X142.615 Y118.062 E31.25956
G1 X142.624 Y118.099 E31.26082
G1 X142.764 Y118.501 E31.27498
G1 X142.78 Y118.535 E31.27623
G1 X142.964 Y118.852 E31.28842
G1 X143.208 Y119.185 E31.30215
G1 X143.244 Y119.223 E31.30389
G1 X143.573 Y119.485 E31.31788
G1 X143.886 Y119.682 E31.33018
G1 X143.92 Y119.699 E31.33145
G1 X144.303 Y119.85 E31.34514
G1 X144.338 Y119.86 E31.34635
G1 X144.695 Y119.928 E31.35844
G1 X145.037 Y119.95 E31.36984
G1 X145.071 Y119.949 E31.37097
G1 X145.451 Y119.908 E31.38368
G1 X145.483 Y119.902 E31.38476
G1 X145.875 Y119.794 E31.39829
G1 X145.914 Y119.778 E31.39969
G1 X146.331 Y119.561 E31.41532
G1 X146.366 Y119.538 E31.41672
G1 X146.655 Y119.299 E31.42919
G1 X146.918 Y119.03 E31.4417
G1 X146.945 Y118.996 E31.44315
G1 X147.155 Y118.66 E31.45632
G1 X147.168 Y118.636 E31.45723
G1 X147.303 Y118.334 E31.46824
G1 X147.313 Y118.303 E31.46932
G1 X147.412 Y117.931 E31.48212
G1 X147.418 Y117.896 E31.4833
G1 X147.451 Y117.492 E31.49678
G1 X147.451 Y117.455 E31.49802
G1 X147.409 Y117.066 E31.51103
G1 X147.404 Y117.037 E31.51201
G1 X147.316 Y116.697 E31.52369
G1 X147.304 Y116.664 E31.52486
G1 X147.141 Y116.307 E31.53791
G1 X147.123 Y116.276 E31.5391
G1 X146.912 Y115.973 E31.55138
G1 X146.894 Y115.95 E31.55235
G1 X146.672 Y115.713 E31.56315
G1 X146.336 Y115.437 E31.57762
G1 X146.296 Y115.411 E31.5792
G1 X145.894 Y115.22 E31.59401
G1 X145.865 Y115.209 E31.59504
G1 X145.511 Y115.103 E31.60733
G1 X145.477 Y115.096 E31.60848
G1 X145.096 Y115.052 E31.62124
G1 X145.063 Y115.051 E31.62234
G1 X144.705 Y115.069 E31.63426
G1 X144.674 Y115.073 E31.6353
G1 X144.333 Y115.144 E31.64688
G1 X144.303 Y115.153 E31.64793
G1 X143.922 Y115.297 E31.66147
G1 X143.886 Y115.315 E31.66281
G1 X143.545 Y115.531 E31.67624
G1 X143.522 Y115.548 E31.67719
G1 X143.252 Y115.78 E31.68903
G1 X143.226 Y115.806 E31.69025
G0 F6000 X142.517 Y115.49
G1 F1200 X142.886 Y115.103 E31.70804
G1 X143.324 Y114.781 E31.72612
G1 X143.812 Y114.535 E31.74429
G1 X144.333 Y114.375 E31.76242
G1 X144.864 Y114.307 E31.78023
G1 X145.408 Y114.33 E31.79834
G1 X145.925 Y114.442 E31.81593
G1 X146.444 Y114.651 E31.83454
G1 X146.899 Y114.931 E31.85231
G1 X147.302 Y115.285 E31.87015
G1 X147.648 Y115.716 E31.88853
G1 X147.91 Y116.182 E31.90631
G1 X148.092 Y116.698 E31.92451
G1 X148.183 Y117.23 E31.94246
G1 X148.183 Y117.77 E31.96042
G1 X148.092 Y118.302 E31.97838
G1 X147.91 Y118.818 E31.99657
G1 X147.648 Y119.284 E32.01436
G1 X147.302 Y119.715 E32.03274
G1 X146.899 Y120.069 E32.05058
G1 X146.444 Y120.349 E32.06835
G1 X145.925 Y120.558 E32.08696
G1 X145.408 Y120.67 E32.10455
G1 X144.864 Y120.693 E32.12266
G1 X144.333 Y120.625 E32.14047
G1 X143.812 Y120.465 E32.15859
G1 X143.324 Y120.219 E32.17677
G1 X142.886 Y119.897 E32.19485
G1 X142.517 Y119.51 E32.21264
G1 X142.207 Y119.053 E32.231
G1 X141.987 Y118.564 E32.24884
G1 X141.851 Y118.043 E32.26675
G1 X141.804 Y117.5 E32.28487
G1 X141.851 Y116.957 E32.303
G1 X141.987 Y116.436 E32.32091
G1 X142.207 Y115.947 E32.33875
G1 X142.517 Y115.49 E32.35711
G0 F6000 X142.207 Y115.235
G1 F1200 X142.619 Y114.804 E32.37694
G1 X143.114 Y114.439 E32.3974
G1 X143.666 Y114.161 E32.41796
G1 X144.247 Y113.983 E32.43817
G1 X144.841 Y113.907 E32.45808
G1 X145.463 Y113.932 E32.47879
G1 X146.041 Y114.058 E32.49847
G1 X146.628 Y114.294 E32.51951
G1 X147.137 Y114.607 E32.53938
G1 X147.593 Y115.007 E32.55956
G1 X147.981 Y115.49 E32.58016
G1 X148.275 Y116.014 E32.60015
G1 X148.48 Y116.597 E32.6207
G1 X148.583 Y117.197 E32.64095
G1 X148.583 Y117.803 E32.6611
G1 X148.48 Y118.403 E32.68135
G1 X148.275 Y118.986 E32.70191
G1 X147.981 Y119.51 E32.72189
G1 X147.593 Y119.993 E32.7425
G1 X147.137 Y120.393 E32.76267
G1 X146.628 Y120.706 E32.78255
G1 X146.041 Y120.942 E32.80359
G1 X145.463 Y121.068 E32.82326
G1 X144.841 Y121.093 E32.84397
G1 X144.247 Y121.017 E32.86389
G1 X143.666 Y120.839 E32.8841
G1 X143.114 Y120.561 E32.90465
G1 X142.619 Y120.196 E32.92511
G1 X142.207 Y119.765 E32.94494
G1 X141.855 Y119.246 E32.9658
G1 X141.609 Y118.698 E32.98578
G1 X141.455 Y118.109 E33.00603
G1 X141.402 Y117.5 E33.02636
G1 X141.455 Y116.891 E33.04669
G1 X141.609 Y116.302 E33.06694
G1 X141.855 Y115.754 E33.08692
G1 X142.207 Y115.235 E33.10778
G1 F2700 E28.10778
G0 F6000 X93.583 Y117.197
G1 F2700 E33.10778
